X:171
T:250 to Vigo
M:4/4
L:1/8
C:Angus Grant
R:reel
K:D
fBBA BdFG- | GBdB Acec | fBBA BdFG- | GABd cBB2 |
fBBA BdFG- | GBdB Acec | fBBA BdFG- | GAfe dBB2 |]
affe decd- | decd ed(3cBA | affe decd- | dfaf fee2 |
affe decd- | decd ed(3cBA | fBBA Bfcd- | dfec dcBA |]
cFFc dGGd | cFFe dB(3Bcd | cFFc dGGd | cfec dcBd |
cFFc dGGd | cFFe dB(3Bcd | cFFc dGGd | cfec defg |]
affd caBc- | caBc dcBA | affd caBc- | caaf fee2 |
affd caBc- | caBc dcBA | fBBA Bfcd- | dfec dcBA |]
